X:1
T:Royal Visit to Newe. 1859
T:Royal Visit to Newe. 1859
T:Alexander Walker
C:Alexander Walker
L:1/8
M:2/2
K:F#min
V:1 treble 
V:1
 C | FGAB cB(cf) | eBce GEGB | FGAB cB(cf) | afge fFF :| f | afFf GfFf | EeGe GEEg | afFf GfFf | %9
 ceBe GFFg | afFf GfFf | EeGe GEEg | ac'gb fgef | ceBc GFF || %14

